X: 3322
T: Tyroler-Hopsa
B:[[Notböcker/Melodier til gamle danske Almuedanse for Violin solo]]
O:Danmark
Z:Søren Bak Vestergaard
M: 2/4
L: 1/8
K: G
B2 A2|GB D2|FG AF|GB D2|B2 A2|GB D2|FG AF|G2 z2:|\
|:g2 e2|dB GB|Ac FA|GB d2|!downbow!g2 e2|dB GB|Ac FA|G2 z2:|
(:musicend:)
(:music:)
